X:29
T:Brenda Stubbert's
M:4/4
K:Am
"Am"AABA GAAB|AABA edde|"G"GGAG BGGB|"Em"c2 BA "G"BGGB|
"Am"AABA GAAB|AABA edda|"G"gedB "Em"GGBd|"G"eedB "Am"eAAB :|
"Am"(3AAA a2 (3AAA g2|Aage aged|"G"GGBA BBGB|"Em"c2 BA "G"BGGB|
|1 "Am"(3AAA a2 (3AAA g2|Aage agea|"G"gedB "Em"GGBd|"G"eedB "Am"eAAB :|
|2 "Am"AABA GAAB|AABA edda|"G"gedB "Em"GGBd|"G"eedB "Am"eAAB |>|
